!!! OTL: Berkowitz185
!!! Chapter: 1
!!! Section: II
!!! Page: 44
!!! Mode: 
!!! Encoder: DJB
**kern
*staff1
*I"Piano
=1-
*clefF4
*k[b-e-a-]
*E-:
*M2/4
8E-/L
8BB-/J
8r
8G\
=2
8G\L
8F\J
8F\L
8E-\J
=3
8F\L
8BB-\J
8r
8A-\
=4
8A-\L
8G\J
8G\L
8F\J
=5
8G\L
8E-\J
8r
8c\
=6
8A-\L
8F\J
8r
8B-\
=7
8G\L
8E-\J
8A-\L
8G\J
=8
4G\
4F\
=9
8E-/L
8BB-/J
8r
8G\
=10
!!linebreak:original
8G\L
8F\J
8F\L
8E-\J
=11
8F\L
8BB-\J
8r
8A-\
=12
8A-\L
8G\J
8G\L
8F\J
=13
8G\L
8B-\J
8e-\L
8G\J
=14
8F\L
8A-\J
8c\L
16B-\L
16A-\JJ
=15
8G\L
8B-\J
16B-\LL
16A-\
16G\
16F\JJ
=16
4E-\
4r
==
*-
